src/assets/svg-icons/bank-icon-light.svg

<svg width="16" height="14" viewBox="0 0 16 14" fill="none" xmlns="http://www.w3.org/2000/svg">
<path d="M14.6151 4.85488V4.11929H15.2363C15.3658 4.11929 15.4707 4.01435 15.4707 3.88492V3.23907C15.4707 3.14031 15.4088 3.05216 15.3159 3.01864L8.07957 0.406531C8.02818 0.387927 7.97182 0.387927 7.92043 0.406531L0.684102 3.01867C0.591201 3.05219 0.529297 3.14034 0.529297 3.2391V3.88492C0.529297 4.01435 0.634238 4.11929 0.763672 4.11929H1.38491V4.85488C1.38491 4.98431 1.48985 5.08926 1.61929 5.08926H2.31928L2.06864 11.2743H1.61929C1.48985 11.2743 1.38491 11.3792 1.38491 11.5086V12.2241H0.763672C0.634238 12.2241 0.529297 12.3291 0.529297 12.4585V13.3727C0.529297 13.5021 0.634238 13.6071 0.763672 13.6071H15.2363C15.3658 13.6071 15.4707 13.5021 15.4707 13.3727V12.4585C15.4707 12.3291 15.3658 12.2241 15.2363 12.2241H14.6151V11.5086C14.6151 11.3792 14.5101 11.2743 14.3807 11.2743H13.9314L13.6807 5.08926H14.3807C14.5101 5.08926 14.6151 4.98431 14.6151 4.85488ZM14.1463 11.743V12.2242H1.85366V11.743H14.1463ZM5.24437 8.99951L5.1522 11.2743H4.68066L4.43 5.08926H5.40283L5.31796 7.18384C5.19749 7.50027 5.13131 7.84325 5.13131 8.20143C5.13131 8.47832 5.17086 8.74606 5.24437 8.99951ZM8 5.80152C9.32331 5.80152 10.3999 6.87812 10.3999 8.20146C10.3999 9.5248 9.32331 10.6014 8 10.6014C6.67666 10.6014 5.60006 9.5248 5.60006 8.20146C5.60006 6.87812 6.67666 5.80152 8 5.80152ZM7.51355 5.08926H8.48642L8.47496 5.37229C8.32042 5.34642 8.16178 5.33274 8 5.33274C7.83822 5.33274 7.67958 5.34642 7.52504 5.37229L7.51355 5.08926ZM8.24448 11.0596L8.23578 11.2743H7.76422L7.75552 11.0596C7.83614 11.0665 7.91765 11.0702 8.00003 11.0702C8.08235 11.0702 8.16386 11.0665 8.24448 11.0596ZM10.682 7.18387L10.5971 5.08928H11.57L11.3193 11.2743H10.8477L10.7556 8.99954C10.8291 8.74609 10.8686 8.47832 10.8686 8.20146C10.8687 7.84328 10.8025 7.5003 10.682 7.18387ZM14.1463 4.62051H1.85366V4.11929H14.1463V4.62051ZM8 10.4499C9.23973 10.4499 10.2484 9.44122 10.2484 8.20146C10.2484 6.96174 9.23973 5.9531 8 5.9531C6.76027 5.9531 5.75164 6.96174 5.75164 8.20146C5.75164 9.44122 6.76027 10.4499 8 10.4499ZM7.76562 7.15571V7.00442C7.76562 6.87499 7.87057 6.77005 8 6.77005C8.12943 6.77005 8.23438 6.87499 8.23438 7.00442V7.14581C8.38569 7.18167 8.52189 7.27117 8.61506 7.40002C8.69091 7.5049 8.66735 7.65141 8.56247 7.72726C8.45753 7.80311 8.31107 7.77953 8.23522 7.67468C8.2001 7.6261 8.14399 7.5971 8.08514 7.5971H7.9531C7.85111 7.5971 7.76812 7.6801 7.76812 7.78211C7.76812 7.88409 7.85111 7.96709 7.9531 7.96709H8.04685C8.40734 7.96709 8.70058 8.26035 8.70058 8.62082C8.70058 8.91616 8.5037 9.16638 8.23435 9.24718V9.3985C8.23435 9.52794 8.1294 9.63288 7.99997 9.63288C7.87054 9.63288 7.7656 9.52794 7.7656 9.3985V9.25712C7.61428 9.22126 7.47805 9.13176 7.38488 9.00291C7.30903 8.89803 7.33259 8.75151 7.43747 8.67566C7.54238 8.59981 7.68887 8.62337 7.76472 8.72825C7.79984 8.77682 7.85595 8.80583 7.9148 8.80583H8.04685C8.14883 8.80583 8.23183 8.72283 8.23183 8.62082C8.23183 8.51884 8.14883 8.43584 8.04685 8.43584H7.9531C7.59263 8.43584 7.29937 8.14258 7.29937 7.78211C7.29937 7.48671 7.49624 7.23648 7.76562 7.15571Z" fill="#F5F5F5"/>
</svg>

<svg xmlns="http://www.w3.org/2000/svg" width="16" height="14" fill="none" viewBox="0 0 16 14"><path fill="#F5F5F5" d="M14.615 4.855v-.736h.621c.13 0 .235-.105.235-.234v-.646a.234.234 0 0 0-.155-.22L8.08.407a.234.234 0 0 0-.16 0L.684 3.019a.234.234 0 0 0-.155.22v.646c0 .13.105.234.235.234h.62v.736c0 .13.106.234.235.234h.7l-.25 6.185h-.45a.234.234 0 0 0-.234.235v.715H.764a.234.234 0 0 0-.235.235v.914c0 .13.105.234.235.234h14.472c.13 0 .235-.105.235-.234v-.914a.234.234 0 0 0-.235-.235h-.62v-.715a.234.234 0 0 0-.235-.235h-.45l-.25-6.185h.7c.13 0 .234-.105.234-.234Zm-.469 6.888v.481H1.854v-.481h12.292ZM5.244 9l-.092 2.274h-.471L4.43 5.09h.973l-.085 2.095A2.854 2.854 0 0 0 5.244 9ZM8 5.802c1.323 0 2.4 1.076 2.4 2.4 0 1.323-1.077 2.4-2.4 2.4a2.403 2.403 0 0 1-2.4-2.4c0-1.324 1.077-2.4 2.4-2.4Zm-.486-.713h.972l-.011.283a2.875 2.875 0 0 0-.95 0l-.011-.283Zm.73 5.97-.008.215h-.472l-.008-.214a2.866 2.866 0 0 0 .488 0Zm2.438-3.875-.085-2.095h.973l-.25 6.185h-.472L10.756 9a2.861 2.861 0 0 0-.074-1.816Zm3.464-2.563H1.854v-.502h12.292v.502ZM8 10.45a2.251 2.251 0 0 0 2.248-2.25A2.251 2.251 0 0 0 8 5.953a2.25 2.25 0 0 0-2.248 2.248A2.251 2.251 0 0 0 8 10.45Zm-.234-3.294v-.152a.234.234 0 0 1 .468 0v.142a.658.658 0 0 1 .381.254.234.234 0 0 1-.38.275.186.186 0 0 0-.15-.078h-.132a.185.185 0 0 0 0 .37h.094a.654.654 0 0 1 .187 1.28V9.4a.234.234 0 0 1-.468 0v-.142a.658.658 0 0 1-.381-.254.234.234 0 0 1 .38-.275.186.186 0 0 0 .15.078h.132a.185.185 0 0 0 0-.37h-.094a.654.654 0 0 1-.187-1.28Z"/></svg>
